public/img/common/icon-outlink-black.svg

<svg fill="none" height="18" viewBox="0 0 17 18" width="17" xmlns="http://www.w3.org/2000/svg"><path d="m9.89474 2.99902h-8.89474v13.99998h13v-10.31577" stroke="#003"/><path d="m16.3097.999861c0-.276143-.2238-.5-.5-.5h-4.5c-.2761 0-.5.223857-.5.5 0 .276139.2239.499999.5.499999h4v4c0 .27614.2239.5.5.5.2762 0 .5-.22386.5-.5zm-8.29208 8.499199 8.14568-8.14565-.7071-.707103-8.14569 8.145643z" fill="#003"/></svg>

<svg width="17" height="18" viewBox="0 0 17 18" fill="none" xmlns="http://www.w3.org/2000/svg">
<path d="M9.89474 2.99902H1V16.999H14V6.68323" stroke="#000033"/>
<path d="M16.3097 0.999861C16.3097 0.723718 16.0859 0.499861 15.8097 0.499861L11.3097 0.499861C11.0336 0.499861 10.8097 0.723718 10.8097 0.999861C10.8097 1.276 11.0336 1.49986 11.3097 1.49986L15.3097 1.49986L15.3097 5.49986C15.3097 5.776 15.5336 5.99986 15.8097 5.99986C16.0859 5.99986 16.3097 5.776 16.3097 5.49986L16.3097 0.999861ZM8.01762 9.49906L16.1633 1.35341L15.4562 0.646307L7.31051 8.79195L8.01762 9.49906Z" fill="#000033"/>
</svg>
